src/assets/imgs/group-2.svg

<?xml version="1.0" encoding="UTF-8"?>
<svg width="179px" height="21px" viewBox="0 0 179 21" version="1.1" xmlns="http://www.w3.org/2000/svg" xmlns:xlink="http://www.w3.org/1999/xlink">
    <title>DBE9D36E-18DA-4AF0-B92F-122F42980A2A</title>
    <g id="Page-1" stroke="none" stroke-width="1" fill="none" fill-rule="evenodd">
        <g id="Movie-page" transform="translate(-20.000000, -89.000000)" fill="#000000">
            <g id="Group-2" transform="translate(20.000000, 89.000000)">
                <path d="M34.681804,19.4987437 L36.2424053,9.13944724 L40.2999687,19.4987437 L42.1726903,19.4987437 L46.446337,9.13944724 L48.0069383,19.4987437 L52.6887423,19.4987437 L49.6155582,1.50125628 L44.9577634,1.50125628 L41.3563758,11.0967337 L37.7309789,1.50125628 L33.0731841,1.50125628 L30,19.4987437 L34.681804,19.4987437 Z M64.7202017,20 C66.1767629,20 67.521281,19.7573283 68.7537559,19.2719849 C69.9862308,18.7866415 71.0466394,18.1143216 71.9349817,17.2550251 C72.823324,16.3957286 73.5155907,15.3892379 74.0117819,14.2355528 C74.5079731,13.0818677 74.7560687,11.8366834 74.7560687,10.5 C74.7560687,9.16331658 74.5079731,7.91813233 74.0117819,6.76444724 C73.5155907,5.61076214 72.823324,4.60427136 71.9349817,3.74497487 C71.0466394,2.88567839 69.9862308,2.21335846 68.7537559,1.72801508 C67.521281,1.24267169 66.1767629,1 64.7202017,1 C63.2476343,1 61.8991147,1.24267169 60.6746429,1.72801508 C59.4501711,2.21335846 58.3977656,2.88567839 57.5174264,3.74497487 C56.6370872,4.60427136 55.948822,5.61076214 55.4526308,6.76444724 C54.9564396,7.91813233 54.708344,9.16331658 54.708344,10.5 C54.708344,11.8366834 54.9564396,13.0818677 55.4526308,14.2355528 C55.948822,15.3892379 56.6370872,16.3957286 57.5174264,17.2550251 C58.3977656,18.1143216 59.4501711,18.7866415 60.6746429,19.2719849 C61.8991147,19.7573283 63.2476343,20 64.7202017,20 Z M64.7202017,15.4648241 C64.0319365,15.4648241 63.3796852,15.3414992 62.7634477,15.0948492 C62.1472103,14.8481993 61.6070021,14.5020938 61.1428233,14.0565327 C60.6786444,13.6109715 60.3105026,13.0858459 60.0383977,12.4811558 C59.7662929,11.8764657 59.6302405,11.2160804 59.6302405,10.5 C59.6302405,9.7839196 59.7662929,9.12353434 60.0383977,8.51884422 C60.3105026,7.9141541 60.6786444,7.38902848 61.1428233,6.94346734 C61.6070021,6.4979062 62.1472103,6.15180067 62.7634477,5.90515075 C63.3796852,5.65850084 64.0319365,5.53517588 64.7202017,5.53517588 C65.4084669,5.53517588 66.0607182,5.65850084 66.6769557,5.90515075 C67.2931931,6.15180067 67.8374028,6.4979062 68.3095848,6.94346734 C68.7817667,7.38902848 69.1539101,7.9141541 69.4260149,8.51884422 C69.6981198,9.12353434 69.8341722,9.7839196 69.8341722,10.5 C69.8341722,11.2160804 69.6981198,11.8764657 69.4260149,12.4811558 C69.1539101,13.0858459 68.7817667,13.6109715 68.3095848,14.0565327 C67.8374028,14.5020938 67.2931931,14.8481993 66.6769557,15.0948492 C66.0607182,15.3414992 65.4084669,15.4648241 64.7202017,15.4648241 Z M86.2113061,19.4987437 L93.8462479,1.50125628 L88.7322774,1.50125628 L84.3385845,12.4572864 L79.9689008,1.50125628 L74.8549303,1.50125628 L82.4658629,19.4987437 L86.2113061,19.4987437 Z M100.307561,19.4987437 L100.307561,1.50125628 L95.6017479,1.50125628 L95.6017479,19.4987437 L100.307561,19.4987437 Z M114.259761,19.4987437 L114.259761,15.5364322 L108.665605,15.5364322 L108.665605,12.4334171 L113.94764,12.4334171 L113.94764,8.47110553 L108.665605,8.47110553 L108.665605,5.46356784 L114.259761,5.46356784 L114.259761,1.50125628 L103.959792,1.50125628 L103.959792,19.4987437 L114.259761,19.4987437 Z M123.049971,20 C124.154397,20 125.142777,19.8528057 126.015114,19.5584171 C126.88745,19.2640285 127.623733,18.8502931 128.223965,18.3172111 C128.824196,17.784129 129.280372,17.1436348 129.592492,16.3957286 C129.904612,15.6478224 130.060672,14.8123953 130.060672,13.8894472 C130.060672,12.520938 129.704535,11.4110134 128.992261,10.5596734 C128.279986,9.70833333 127.155553,9.02805695 125.618961,8.51884422 C125.234813,8.39154104 124.846663,8.2721943 124.454512,8.16080402 C124.062361,8.04941374 123.710225,7.91813233 123.398105,7.7669598 C123.085985,7.61578727 122.833888,7.43676717 122.641814,7.2298995 C122.44974,7.02303183 122.353703,6.76046901 122.353703,6.44221106 C122.353703,5.98073702 122.545777,5.60678392 122.929925,5.32035176 C123.314073,5.0339196 123.810264,4.89070352 124.418498,4.89070352 C124.898683,4.89070352 125.394875,4.99015913 125.907072,5.18907035 C126.419269,5.38798157 126.931467,5.69430486 127.443664,6.1080402 L127.443664,6.1080402 L129.316386,2.45603015 C128.42004,1.97864322 127.483679,1.61662479 126.507303,1.36997487 C125.530927,1.12332496 124.594566,1 123.698221,1 C122.737851,1 121.869516,1.14321608 121.093217,1.42964824 C120.316918,1.7160804 119.660665,2.11788107 119.124459,2.63505025 C118.588252,3.15221943 118.172092,3.77282245 117.875977,4.4968593 C117.579863,5.22089615 117.431806,6.02847571 117.431806,6.91959799 C117.431806,7.81072027 117.57186,8.54669179 117.851968,9.12751256 C118.132076,9.70833333 118.500218,10.1896985 118.956394,10.571608 C119.41257,10.9535176 119.93277,11.2598409 120.516995,11.4905779 C121.10122,11.7213149 121.69745,11.9321608 122.305684,12.1231156 C122.817882,12.2981575 123.25405,12.4572864 123.614188,12.6005025 C123.974327,12.7437186 124.26644,12.8988693 124.490526,13.0659548 C124.714613,13.2330402 124.874674,13.4160385 124.970711,13.6149497 C125.066748,13.813861 125.114767,14.0485762 125.114767,14.3190955 C125.114767,14.7646566 124.926694,15.1624791 124.550549,15.5125628 C124.174404,15.8626466 123.602184,16.0376884 122.833888,16.0376884 C122.161629,16.0376884 121.481367,15.8865159 120.793101,15.5841709 C120.104836,15.2818258 119.408568,14.8203518 118.704297,14.1997487 L118.704297,14.1997487 L116.68752,17.9711055 C118.640272,19.3237018 120.761089,20 123.049971,20 Z M139.859271,19.4987437 L139.859271,5.46356784 L143.724761,5.46356784 L143.724761,1.50125628 L131.287969,1.50125628 L131.287969,5.46356784 L135.153458,5.46356784 L135.153458,19.4987437 L139.859271,19.4987437 Z M148.121278,19.4987437 L149.201695,16.3718593 L155.924285,16.3718593 L157.004701,19.4987437 L162.022635,19.4987437 L155.13198,1.50125628 L149.994,1.50125628 L143.103345,19.4987437 L148.121278,19.4987437 Z M154.675804,12.8153266 L150.450176,12.8153266 L152.56299,6.8241206 L154.675804,12.8153266 Z M168.652013,19.4987437 L168.652013,12.5766332 L173.141743,19.4987437 L179,19.4987437 L173.309807,12.1231156 C174.606307,11.8207705 175.586685,11.243928 176.250941,10.3925879 C176.915197,9.54124791 177.247325,8.43132328 177.247325,7.06281407 C177.247325,6.29899497 177.123277,5.58291457 176.875181,4.91457286 C176.627086,4.24623116 176.258944,3.65745394 175.770756,3.14824121 C175.282568,2.63902848 174.662329,2.23722781 173.910039,1.9428392 C173.157749,1.64845059 172.27741,1.50125628 171.269021,1.50125628 L171.269021,1.50125628 L163.9462,1.50125628 L163.9462,19.4987437 L168.652013,19.4987437 Z M169.540355,9.54522613 L168.652013,9.54522613 L168.652013,5.10552764 L169.540355,5.10552764 C170.468713,5.10552764 171.180987,5.29648241 171.677178,5.67839196 C172.17337,6.06030151 172.421465,6.60929648 172.421465,7.32537688 C172.421465,8.04145729 172.17337,8.59045226 171.677178,8.97236181 C171.180987,9.35427136 170.468713,9.54522613 169.540355,9.54522613 L169.540355,9.54522613 Z" id="MOVIESTAR" fill-rule="nonzero"></path>
                <polygon id="Star" points="10.5 15.75 4.32825485 18.9946784 5.50695329 12.1223392 0.513906579 7.25532156 7.41412743 6.25266078 10.5 0 13.5858726 6.25266078 20.4860934 7.25532156 15.4930467 12.1223392 16.6717451 18.9946784"></polygon>
            </g>
        </g>
    </g>
</svg>

<svg xmlns="http://www.w3.org/2000/svg" width="179" height="21" viewBox="0 0 179 21">
    <g fill="#F5C417" fill-rule="evenodd">
        <path fill-rule="nonzero" d="M34.682 19.499l1.56-10.36L40.3 19.5h1.873l4.273-10.36 1.56 10.36h4.683L49.616 1.5h-4.658l-3.602 9.596L37.731 1.5h-4.658L30 19.5h4.682zM64.72 20c1.457 0 2.801-.243 4.034-.728 1.232-.485 2.293-1.158 3.181-2.017.888-.86 1.58-1.866 2.077-3.02.496-1.153.744-2.398.744-3.735 0-1.337-.248-2.582-.744-3.736-.496-1.153-1.189-2.16-2.077-3.019-.888-.86-1.949-1.532-3.181-2.017C67.52 1.243 66.177 1 64.72 1c-1.472 0-2.82.243-4.045.728s-2.277 1.158-3.158 2.017c-.88.86-1.568 1.866-2.064 3.02-.497 1.153-.745 2.398-.745 3.735 0 1.337.248 2.582.745 3.736.496 1.153 1.184 2.16 2.064 3.019.88.86 1.933 1.532 3.158 2.017 1.224.485 2.573.728 4.045.728zm0-4.535c-.688 0-1.34-.124-1.957-.37-.616-.247-1.156-.593-1.62-1.038-.464-.446-.832-.971-1.105-1.576-.272-.605-.408-1.265-.408-1.981 0-.716.136-1.376.408-1.981.273-.605.64-1.13 1.105-1.576.464-.445 1.004-.791 1.62-1.038.617-.246 1.269-.37 1.957-.37.688 0 1.34.124 1.957.37.616.247 1.16.593 1.633 1.038.472.446.844.971 1.116 1.576.272.605.408 1.265.408 1.981 0 .716-.136 1.376-.408 1.981-.272.605-.644 1.13-1.116 1.576-.473.445-1.017.791-1.633 1.038-.616.246-1.269.37-1.957.37zm21.491 4.034L93.846 1.5h-5.114L84.34 12.457l-4.37-10.956h-5.114l7.61 17.998h3.746zm14.097 0V1.5h-4.706V19.5h4.706zm13.952 0v-3.963h-5.594v-3.103h5.282V8.471h-5.282V5.464h5.594V1.5h-10.3V19.5h10.3zm8.79.501c1.104 0 2.093-.147 2.965-.442.872-.294 1.609-.708 2.209-1.24.6-.534 1.056-1.174 1.368-1.922.313-.748.469-1.584.469-2.507 0-1.368-.356-2.478-1.069-3.33-.712-.85-1.836-1.53-3.373-2.04-.384-.127-.772-.247-1.164-.358-.393-.112-.745-.243-1.057-.394-.312-.151-.564-.33-.756-.537-.192-.207-.288-.47-.288-.788 0-.461.192-.835.576-1.122.384-.286.88-.43 1.488-.43.48 0 .977.1 1.49.3.511.198 1.023.504 1.536.918l1.872-3.652c-.896-.477-1.832-.84-2.809-1.086-.976-.247-1.912-.37-2.809-.37-.96 0-1.828.143-2.605.43-.776.286-1.432.688-1.969 1.205-.536.517-.952 1.138-1.248 1.862-.296.724-.444 1.531-.444 2.423 0 .89.14 1.627.42 2.208.28.58.648 1.062 1.104 1.444.457.382.977.688 1.561.919.584.23 1.18.441 1.789.632.512.175.948.334 1.308.478.36.143.652.298.877.465.224.167.384.35.48.549.096.199.144.434.144.704 0 .446-.188.843-.564 1.194-.377.35-.949.525-1.717.525-.672 0-1.353-.151-2.04-.454-.69-.302-1.385-.764-2.09-1.384l-2.016 3.771C118.64 19.324 120.76 20 123.05 20zm16.81-.501V5.464h3.865V1.5h-12.437v3.963h3.865v14.035h4.706zm8.261 0l1.08-3.127h6.723l1.08 3.127h5.019L155.132 1.5h-5.138l-6.89 17.998h5.017zm6.555-6.684h-4.226l2.113-5.99 2.113 5.99zm13.976 6.684v-6.922l4.49 6.922H179l-5.69-7.376c1.296-.302 2.277-.88 2.94-1.73.665-.852.997-1.962.997-3.33 0-.764-.124-1.48-.372-2.148-.248-.669-.616-1.258-1.104-1.767-.488-.509-1.109-.91-1.861-1.205-.752-.295-1.633-.442-2.641-.442h-7.323V19.5h4.706zm.888-9.954h-.888v-4.44h.888c.929 0 1.641.191 2.137.573.496.382.744.931.744 1.647s-.248 1.265-.744 1.647c-.496.382-1.208.573-2.137.573z"/>
        <path d="M10.5 15.75L4.328 18.995 5.507 12.122 0.514 7.255 7.414 6.253 10.5 0 13.586 6.253 20.486 7.255 15.493 12.122 16.672 18.995z"/>
    </g>
</svg>
